X: 51
T: DA BLUE YOWE
S: Estelle Johnson, Hamnavoe
R: reel
B: Haand me doon da fiddle, 1979
Z: 2012 John Chambers <jc:trillian.mit.edu>
N: There's an extra count in the last bar.  Fixed by making the rhythm match bars 4 & 6.
M: C
L: 1/8
K: D
   f | afdf ede<e | (B/c/B) ed B2Af | afef edee | (e/f/g) fe {Bc}d3 :|
|: A | d2fd ed BB | d<B ed {Bc}B2AA | d2fd edee | (e/f/g) fe d3 :|
%%begintext align
Dis is anidder t\"un o' Freddie Stickle's.  Wan day whin he wis
at da cr\"u an dey wir rooin sheep twa folk fell oot aboot wha
owned a yowe.  Whin Freddie cam hame he composed dis t\"un an du
can hear da folk flytin as du plays him.  Da colour o' da yowe
wis a dark blue bit dat strain o' sheep is aa dead oot noo.
%%endtext

%%sep 2 1 500
%%sep 1 1 500

